X:67
T:ELSIEMR- Alcy Marly
Q:1/4=120
L:1/8
M:6/8
K:Am
c|BABG2G|G2g gdB|BABG2G|F2f fcA|BABG2G|G2g gdB|ABAF2F|F2f fcA::\
B2Bc2c|d2g gdB|B2Bc2c|A2f fcA|B2Bc2c|d2g gdB|ABAF2F|F2f fcA::\
G2g gdB|gdB gdB|F2f fcA|fcA fcA|G2g gdB|gdB gdB|ABAF2F|F2fcA|]
